X: 11285
T: E To E
R: reel
M: 4/4
K: Eminor
eE~E2 GFEB,|CEGE DFAd|eE~E2 GFEA|(3Bcdef g3f|
eE~E2 GFEB,|CEGE FAdc|BGGB ADFA|1 BdAF E2d^d:|2 BdAF E4||
|:e3f geag|fdAG FGAc|BG~G2 AFdF|eFdF B2AF|
Eeef geag|fdAG FGAc|BGGB ADFA|1 (3Bcd AF E2d^d:|2 BdAF E4||

